X:1
T:Canon in D for Trombone Quartet
T:Canon in D for Trombone Quartet
%%score 1 2 3 4
L:1/8
Q:1/4=60
M:none
K:D
V:1 bass nm="Tenor Trombone" snm="T. Tbn."
V:2 bass nm="Tenor Trombone" snm="T. Tbn."
V:3 bass nm="Tenor Trombone" snm="T. Tbn."
V:4 bass nm="Tenor Trombone" snm="T. Tbn."
V:1
 z8 | z8 |!p! F2 E2 D2 C2 | B,2 A,2 B,2 C2 | D2 C2 B,2 A,2 |!>(! G,2 F,2 G,2 E,2!>)! | %6
 (D,F,) (A,G,) (F,D,) (F,E,) | (D,B,,) (D,A,) (G,B,) (A,G,) | (F,D,)!<(! (E,C) (DF)(AA,)!<)! | %9
 (B,G,) (A,F,) D,D{E}TD>C |!mf! (D/C/D/)D,/ C,/(A,/E,/F,/)!<(! D,/D/C/B,/ C/(F/A/B/)!<)! | %11
 (G/F/E/)G/!>(! F/E/D/C/ (B,/A,/G,/)F,/ E,/(G,/F,/E,/)!>)! | %12
!mp! (D,/E,/F,/G,/) A,/(E,/A,/G,/) F,/B,/A,/G,/ A,/(G,/F,/E,/) | %13
 D,/B,,/(B,/C/ D/)C/B,/A,/ (G,/F,/E,/)B,/ A,/(B,/A,/G,/) |!mf! F,!^!F !tenuto!E2 z .D F2 | %15
 B2!<(! A2 B2 c2!<)! |!>(! !^!d.D !tenuto!C2 z!mp! .B, D2!>)! | %17
 D3 D (!tenuto!D!tenuto!G) (!tenuto!E!tenuto!A) | %18
!mf! A/F/4G/4 A/4F/4G/4 .A/(!tenuto!A,/4B,/4C/4D/4E/4F/4G/4) (F/D/4E/4) .F/(F,/4G,/4) (!tenuto!A,/4B,/4A,/4G,/4A,/4F,/4G,/4A,/4) | %19
 (G,/B,/4A,/4) (G,/F,/4E,/4) (!tenuto!F,/4E,/4D,/4E,/4F,/4G,/4A,/4B,/4) (G,/B,/4A,/4 B,/C/4D/4) (!tenuto!A,/4B,/4C/4D/4E/4F/4G/4A/4) | %20
 (F/D/4E/4 F/E/4D/4) (!tenuto!E/4C/4D/4E/4F/4E/4D/4C/4) (D/B,/4C/4) .D/(D,/4E,/4) (!tenuto!F,/4G,/4F,/4E,/4F,/4D/4C/4D/4) | %21
 (B,/D/4C/4 B,/A,/4G,/4) (!tenuto!A,/4G,/4F,/4G,/4A,/4B,/4C/4D/4) (B,/D/4C/4 D/C/4B,/4)!>(! (!tenuto!C/4D/4E/4D/4C/4D/4B,/4C/4)!>)! | %22
!mp! !^!D z !^!C z !^!B, z !^!D z | !^!D, z !^!D, z !^!D, z !^!E, z |!p! z .A, z .A, z .F, z .A, | %25
 z .G, z .F, z .G, z !tenuto!E | %26
!mf! !^!F/(F,/G,/F,/) !^!E,/(E/F/E/) !^!D/(F,/D,/B,/) !^!A,/(A,,/G,,/A,,/) | %27
 !^!B,,/(B,/C/B,/) !^!A,/(A,,/G,,/A,,/) !^!B,,/(B,/A,/B,/) !^!C/(C,/B,,/C,/) | %28
 !^!D,/(D/E/D/) !^!C/(C,/D,/C,/) !^!B,,/(B,/A,/B,/) !^!C/(C,/F,/E,/) | %29
 !^!D,/(D/E/G/) !^!F/(F,/A,/F/) !^!D/(G/F/G/) !^!E/(A,/G,/A,/) | %30
!mp! F,/A,/A,/A,/ A,/A,/A,/A,/ F,/F,/F,/F,/ F,/F,/A,/A,/ | %31
 G,/G,/G,/D/ D/D/D/D/ D/D/B,/B,/ A,/A,/E/C/ | A,/F/F/F/ E/E/E/E/ D/D/D/D/ A/A/A/A/ | %33
 B/B/B/B/ A/A/A/A/!<(! B/B/B/B/ c/C/C/C/!<)! | %34
!mf! !^!D/(D,/4E,/4)F,/.D,/ !^!C,/(C/4D/4)E/.C/ !^!B,/(B,,/4C,/4)D,/.B,,/ !^!C,/(A,/4G,/4)F,/.E,/ | %35
 !^!D,/(G,/4F,/4)E,/.G,/ !^!F,/(D,/4E,/4)F,/.A,/ !^!G,/(B,/4A,/4)G,/.F,/ !^!E,/(A,/4G,/4)F,/.E,/ | %36
 !^!F,/(D/4C/4)D/.F,/ !^!A,/(A,/4B,/4)C/.A,/ !^!F,/(D/4E/4)F/.D/ !^!F/(F/4E/4)D/.C/ | %37
 !^!B,/(B,/4A,/4)B,/.C/ !^!D/(F/4E/4)D/.F/ !^!G/(D/4C/4)B,/.B,/ A,/E,/A,/A,/ | A,3 A, D,3 A, | %39
 G,2 A,2 G,D,TD,>C, | D,!f!D !tenuto!C2 !tenuto!B,2 !tenuto!A,2 | %41
 D,>E, !tenuto!F,2 !tenuto!B,2 E,>E, | F,>F (F/G/)(F/E/) D>D (D/E/)(D/C/) | %43
 B,2 D2 (D/=C/)(B,/C<)A,A,/ | A,>A (A/B/)(A/G/) F>F (F/G/)(F/E/) | (D/=C/)(B,/C<)A,A,/ .G,.D^C>C | %46
!mf! D D2 C2 B,2 A,- | A, G,2 F,- F,>E, E,2 | F, F2 E D d2 =c |!<(! B2 (dA) B2 A2!<)! | %50
!f! A2 (A,>G,) F,2 (F>E) | D3 D D2 C2 | %52
 !tenuto!D!tenuto!D, !tenuto!C,!tenuto!C !tenuto!B,!tenuto!B,, !tenuto!A,,!tenuto!A, | %53
 !tenuto!G,!tenuto!G !tenuto!F!tenuto!F, !tenuto!E,!tenuto!B,!<(! !tenuto!E,!tenuto!E!<)! | %54
!ff! !tenuto!F!tenuto!F, !tenuto!E,!tenuto!E !tenuto!D!tenuto!D, !tenuto!C,!tenuto!C | %55
 !tenuto!B,!tenuto!B !tenuto!A!tenuto!A, !tenuto!G,>!tenuto!E !tenuto!A,!tenuto!A, | A,2 z2 z4 |] %57
V:2
 z8 | z8 | z8 | z8 |!p! F2 E2 D2 C2 | B,2 A,2 B,2 C2 | D2 C2 B,2 A,2 |!>(! G,2 F,2 G,2 E,2!>)! | %8
 (D,F,) (A,G,) (F,D,) (F,E,) | (D,B,,) (D,A,) (G,B,) (A,G,) | (F,D,)!<(! (E,C) (DF)(AA,)!<)! | %11
 (B,G,) (A,F,) D,D{E}TD>C |!mf! (D/C/D/)D,/ C,/(A,/E,/F,/)!<(! D,/D/C/B,/ C/(F/A/B/)!<)! | %13
 (G/F/E/)G/!>(! F/E/D/C/ (B,/A,/G,/)F,/ E,/(G,/F,/E,/)!>)! | %14
!mp! (D,/E,/F,/G,/) A,/(E,/A,/G,/) F,/B,/A,/G,/ A,/(G,/F,/E,/) | %15
 D,/B,,/(B,/C/ D/)C/B,/A,/ (G,/F,/E,/)B,/ A,/(B,/A,/G,/) |!mf! F,!^!F !tenuto!E2 z .D F2 | %17
 B2!<(! A2 B2 c2!<)! |!>(! !^!d.D !tenuto!C2 z!mp! .B, D2!>)! | %19
 D3 D (!tenuto!D!tenuto!G) (!tenuto!E!tenuto!A) | %20
!mf! A/F/4G/4 A/4F/4G/4 .A/(!tenuto!A,/4B,/4C/4D/4E/4F/4G/4) (F/D/4E/4) .F/(F,/4G,/4) (!tenuto!A,/4B,/4A,/4G,/4A,/4F,/4G,/4A,/4) | %21
 (G,/B,/4A,/4) (G,/F,/4E,/4) (!tenuto!F,/4E,/4D,/4E,/4F,/4G,/4A,/4B,/4) (G,/B,/4A,/4 B,/C/4D/4) (!tenuto!A,/4B,/4C/4D/4E/4F/4G/4A/4) | %22
 (F/D/4E/4 F/E/4D/4) (!tenuto!E/4C/4D/4E/4F/4E/4D/4C/4) (D/B,/4C/4) .D/(D,/4E,/4) (!tenuto!F,/4G,/4F,/4E,/4F,/4D/4C/4D/4) | %23
 (B,/D/4C/4 B,/A,/4G,/4) (!tenuto!A,/4G,/4F,/4G,/4A,/4B,/4C/4D/4) (B,/D/4C/4 D/C/4B,/4)!>(! (!tenuto!C/4D/4E/4D/4C/4D/4B,/4C/4)!>)! | %24
!mp! !^!D z !^!C z !^!B, z !^!D z | !^!D, z !^!D, z !^!D, z !^!E, z |!p! z .A, z .A, z .F, z .A, | %27
 z .G, z .F, z .G, z !tenuto!E | %28
!mf! !^!F/(F,/G,/F,/) !^!E,/(E/F/E/) !^!D/(F,/D,/B,/) !^!A,/(A,,/G,,/A,,/) | %29
 !^!B,,/(B,/C/B,/) !^!A,/(A,,/G,,/A,,/) !^!B,,/(B,/A,/B,/) !^!C/(C,/B,,/C,/) | %30
 !^!D,/(D/E/D/) !^!C/(C,/D,/C,/) !^!B,,/(B,/A,/B,/) !^!C/(C,/F,/E,/) | %31
 !^!D,/(D/E/G/) !^!F/(F,/A,/F/) !^!D/(G/F/G/) !^!E/(A,/G,/A,/) | %32
!mp! F,/A,/A,/A,/ A,/A,/A,/A,/ F,/F,/F,/F,/ F,/F,/A,/A,/ | %33
 G,/G,/G,/D/ D/D/D/D/ D/D/B,/B,/ A,/A,/E/C/ | A,/F/F/F/ E/E/E/E/ D/D/D/D/ A/A/A/A/ | %35
 B/B/B/B/ A/A/A/A/!<(! B/B/B/B/ c/C/C/C/!<)! | %36
!mf! !^!D/(D,/4E,/4)F,/.D,/ !^!C,/(C/4D/4)E/.C/ !^!B,/(B,,/4C,/4)D,/.B,,/ !^!C,/(A,/4G,/4)F,/.E,/ | %37
 !^!D,/(G,/4F,/4)E,/.G,/ !^!F,/(D,/4E,/4)F,/.A,/ !^!G,/(B,/4A,/4)G,/.F,/ !^!E,/(A,/4G,/4)F,/.E,/ | %38
 !^!F,/(D/4C/4)D/.F,/ !^!A,/(A,/4B,/4)C/.A,/ !^!F,/(D/4E/4)F/.D/ !^!F/(F/4E/4)D/.C/ | %39
 !^!B,/(B,/4A,/4)B,/.C/ !^!D/(F/4E/4)D/.F/ !^!G/(D/4C/4)B,/.B,/ A,/E,/A,/A,/ | A,3 A, D,3 A, | %41
 G,2 A,2 G,D,TD,>C, | D,!f!D !tenuto!C2 !tenuto!B,2 !tenuto!A,2 | %43
 D,>E, !tenuto!F,2 !tenuto!B,2 E,>E, | F,>F (F/G/)(F/E/) D>D (D/E/)(D/C/) | %45
 B,2 D2 (D/=C/)(B,/C<)A,A,/ | A,>A (A/B/)(A/G/) F>F (F/G/)(F/E/) | (D/=C/)(B,/C<)A,A,/ .G,.D^C>C | %48
!mf! D D2 C2 B,2 A,- | A, G,2 F,- F,>E, E,2 | F, F2 E D d2 =c |!<(! B2 (dA) B2 A2!<)! | %52
!f! A2 (A,>G,) F,2 (F>E) | D3 D D2 C2 | %54
 !tenuto!D!tenuto!D, !tenuto!C,!tenuto!C !tenuto!B,!tenuto!B,, !tenuto!A,,!tenuto!A, | %55
 !tenuto!G,!tenuto!G !tenuto!F!tenuto!F, !tenuto!E,!tenuto!B,!<(! !tenuto!E,!tenuto!E!<)! | %56
!ff! F2 z2 z4 |] %57
V:3
 z8 | z8 | z8 | z8 | z8 | z8 |!p! F2 E2 D2 C2 | B,2 A,2 B,2 C2 | D2 C2 B,2 A,2 | %9
!>(! G,2 F,2 G,2 E,2!>)! | (D,F,) (A,G,) (F,D,) (F,E,) | (D,B,,) (D,A,) (G,B,) (A,G,) | %12
 (F,D,)!<(! (E,C) (DF)(AA,)!<)! | (B,G,) (A,F,) D,D{E}TD>C | %14
!mf! (D/C/D/)D,/ C,/(A,/E,/F,/)!<(! D,/D/C/B,/ C/(F/A/B/)!<)! | %15
 (G/F/E/)G/!>(! F/E/D/C/ (B,/A,/G,/)F,/ E,/(G,/F,/E,/)!>)! | %16
!mp! (D,/E,/F,/G,/) A,/(E,/A,/G,/) F,/B,/A,/G,/ A,/(G,/F,/E,/) | %17
 D,/B,,/(B,/C/ D/)C/B,/A,/ (G,/F,/E,/)B,/ A,/(B,/A,/G,/) |!mf! F,!^!F !tenuto!E2 z .D F2 | %19
 B2!<(! A2 B2 c2!<)! |!>(! !^!d.D !tenuto!C2 z!mp! .B, D2!>)! | %21
 D3 D (!tenuto!D!tenuto!G) (!tenuto!E!tenuto!A) | %22
!mf! A/F/4G/4 A/4F/4G/4 .A/(!tenuto!A,/4B,/4C/4D/4E/4F/4G/4) (F/D/4E/4) .F/(F,/4G,/4) (!tenuto!A,/4B,/4A,/4G,/4A,/4F,/4G,/4A,/4) | %23
 (G,/B,/4A,/4) (G,/F,/4E,/4) (!tenuto!F,/4E,/4D,/4E,/4F,/4G,/4A,/4B,/4) (G,/B,/4A,/4 B,/C/4D/4) (!tenuto!A,/4B,/4C/4D/4E/4F/4G/4A/4) | %24
 (F/D/4E/4 F/E/4D/4) (!tenuto!E/4C/4D/4E/4F/4E/4D/4C/4) (D/B,/4C/4) .D/(D,/4E,/4) (!tenuto!F,/4G,/4F,/4E,/4F,/4D/4C/4D/4) | %25
 (B,/D/4C/4 B,/A,/4G,/4) (!tenuto!A,/4G,/4F,/4G,/4A,/4B,/4C/4D/4) (B,/D/4C/4 D/C/4B,/4)!>(! (!tenuto!C/4D/4E/4D/4C/4D/4B,/4C/4)!>)! | %26
!mp! !^!D z !^!C z !^!B, z !^!D z | !^!D, z !^!D, z !^!D, z !^!E, z |!p! z .A, z .A, z .F, z .A, | %29
 z .G, z .F, z .G, z !tenuto!E | %30
!mf! !^!F/(F,/G,/F,/) !^!E,/(E/F/E/) !^!D/(F,/D,/B,/) !^!A,/(A,,/G,,/A,,/) | %31
 !^!B,,/(B,/C/B,/) !^!A,/(A,,/G,,/A,,/) !^!B,,/(B,/A,/B,/) !^!C/(C,/B,,/C,/) | %32
 !^!D,/(D/E/D/) !^!C/(C,/D,/C,/) !^!B,,/(B,/A,/B,/) !^!C/(C,/F,/E,/) | %33
 !^!D,/(D/E/G/) !^!F/(F,/A,/F/) !^!D/(G/F/G/) !^!E/(A,/G,/A,/) | %34
!mp! F,/A,/A,/A,/ A,/A,/A,/A,/ F,/F,/F,/F,/ F,/F,/A,/A,/ | %35
 G,/G,/G,/D/ D/D/D/D/ D/D/B,/B,/ A,/A,/E/C/ | A,/F/F/F/ E/E/E/E/ D/D/D/D/ A/A/A/A/ | %37
 B/B/B/B/ A/A/A/A/!<(! B/B/B/B/ c/C/C/C/!<)! | %38
!mf! !^!D/(D,/4E,/4)F,/.D,/ !^!C,/(C/4D/4)E/.C/ !^!B,/(B,,/4C,/4)D,/.B,,/ !^!C,/(A,/4G,/4)F,/.E,/ | %39
 !^!D,/(G,/4F,/4)E,/.G,/ !^!F,/(D,/4E,/4)F,/.A,/ !^!G,/(B,/4A,/4)G,/.F,/ !^!E,/(A,/4G,/4)F,/.E,/ | %40
 !^!F,/(D/4C/4)D/.F,/ !^!A,/(A,/4B,/4)C/.A,/ !^!F,/(D/4E/4)F/.D/ !^!F/(F/4E/4)D/.C/ | %41
 !^!B,/(B,/4A,/4)B,/.C/ !^!D/(F/4E/4)D/.F/ !^!G/(D/4C/4)B,/.B,/ A,/E,/A,/A,/ | A,3 A, D,3 A, | %43
 G,2 A,2 G,D,TD,>C, | D,!f!D !tenuto!C2 !tenuto!B,2 !tenuto!A,2 | %45
 D,>E, !tenuto!F,2 !tenuto!B,2 E,>E, | F,>F (F/G/)(F/E/) D>D (D/E/)(D/C/) | %47
 B,2 D2 (D/=C/)(B,/C<)A,A,/ | A,>A (A/B/)(A/G/) F>F (F/G/)(F/E/) | (D/=C/)(B,/C<)A,A,/ .G,.D^C>C | %50
!mf! D D2 C2 B,2 A,- | A, G,2 F,- F,>E, E,2 | F, F2 E D d2 =c |!<(! B2 (dA) B2 A2!<)! | %54
!f! A2 (A,>G,) F,2 (F>E) | D3 D D2 C2 | !tenuto!D2 z2 z4 |] %57
V:4
 D,2 A,,2 B,,2 F,,2 | G,,2 D,,2 G,,2 A,,2 | D,2 A,,2 B,,2 F,,2 | G,,2 D,,2 G,,2 A,,2 | %4
 D,2 A,,2 B,,2 F,,2 | G,,2 D,,2 G,,2 A,,2 | D,2 A,,2 B,,2 F,,2 | G,,2 D,,2 G,,2 A,,2 | %8
 D,2 A,,2 B,,2 F,,2 | G,,2 D,,2 G,,2 A,,2 | D,2 A,,2 B,,2 F,,2 | G,,2 D,,2 G,,2 A,,2 | %12
 D,2 A,,2 B,,2 F,,2 | G,,2 D,,2 G,,2 A,,2 | D,2 A,,2 B,,2 F,,2 | G,,2 D,,2 G,,2 A,,2 | %16
 D,2 A,,2 B,,2 F,,2 | G,,2 D,,2 G,,2 A,,2 | D,2 A,,2 B,,2 F,,2 | G,,2 D,,2 G,,2 A,,2 | %20
 D,2 A,,2 B,,2 F,,2 | G,,2 D,,2 G,,2 A,,2 | D,2 A,,2 B,,2 F,,2 | G,,2 D,,2 G,,2 A,,2 | %24
 D,2 A,,2 B,,2 F,,2 | G,,2 D,,2 G,,2 A,,2 | D,2 A,,2 B,,2 F,,2 | G,,2 D,,2 G,,2 A,,2 | %28
 D,2 A,,2 B,,2 F,,2 | G,,2 D,,2 G,,2 A,,2 | D,2 A,,2 B,,2 F,,2 | G,,2 D,,2 G,,2 A,,2 | %32
 D,2 A,,2 B,,2 F,,2 | G,,2 D,,2 G,,2 A,,2 | D,2 A,,2 B,,2 F,,2 | G,,2 D,,2 G,,2 A,,2 | %36
 D,2 A,,2 B,,2 F,,2 | G,,2 D,,2 G,,2 A,,2 | D,2 A,,2 B,,2 F,,2 | G,,2 D,,2 G,,2 A,,2 | %40
 D,2 A,,2 B,,2 F,,2 | G,,2 D,,2 G,,2 A,,2 | D,2 A,,2 B,,2 F,,2 | G,,2 D,,2 G,,2 A,,2 | %44
 D,2 A,,2 B,,2 F,,2 | G,,2 D,,2 G,,2 A,,2 | D,2 A,,2 B,,2 F,,2 | G,,2 D,,2 G,,2 A,,2 | %48
 D,2 A,,2 B,,2 F,,2 | G,,2 D,,2 G,,2 A,,2 | D,2 A,,2 B,,2 F,,2 | G,,2 D,,2 G,,2 A,,2 | %52
 D,2 A,,2 B,,2 F,,2 | G,,2 D,,2 G,,2 A,,2 | D,2 A,,2 B,,2 F,,2 | G,,2 D,,2 G,,2 A,,2 | D,2 z2 z4 |] %57

